X: 10713
U: Q=!diminuendo(!
U: q=!diminuendo)!
M: 6/8
L: 1/8
K: D
!p!A |\
(A3 F2)A | (A3 F2)F | E2E EFE | DFD A,2A |\
!f!(A3 F2)A | A2d d2f | f2f {f}ede | dAF D2 H|]
!pp!d |\
Q(ce)qA Q(ce)qA | Q(df)qA Q(df)qA |\
Q(ce)qA Q(ce)qA | dec d2d |\
Q(ce)qA Q(ce)qA | Q(df)qA Q(df)qA |\
Q(ce)qA Q(ce)qA | dec d2 |]
!f!A |\
!f!ABc def | age c2A | Q(ce)qA Q(ce)qA | dec "^D.C."d2 |]
|: A |\
ded AFA | dfd ege | ded AFA | dec d2 :|\
a | aga afd | cea d2=c | Bbb Aaa | gec "^D.C."d2 |]


